icons/map-line.svg

<svg xmlns="http://www.w3.org/2000/svg" width="24" height="24" fill="none"><g clip-path="url(#a)"><g><path fill="#121212" d="M2 5L9 2L15 5L21.303 2.299C21.3791 2.26638 21.4621 2.25317 21.5445 2.26054C21.627 2.26792 21.7063 2.29565 21.7754 2.34124C21.8445 2.38684 21.9012 2.44888 21.9404 2.5218C21.9796 2.59471 22.0001 2.67622 22 2.759V19L15 22L9 19L2.697 21.701C2.62091 21.7336 2.53792 21.7468 2.45547 21.7395C2.37301 21.7321 2.29368 21.7044 2.22459 21.6588C2.1555 21.6132 2.09881 21.5511 2.05961 21.4782C2.02041 21.4053 1.99993 21.3238 2 21.241V5ZM14.935 7.204L8.935 4.204L4 6.319V18.967L9.065 16.797L15.065 19.797L20 17.68V5.033L14.935 7.203V7.204Z"/></g></g><defs><clipPath id="a"><rect width="24" height="24" fill="white"/></clipPath></defs></svg>

<svg width="24" height="24" fill="none" xmlns="http://www.w3.org/2000/svg"><g clip-path="url(#a)"><path d="m2 5 7-3 6 3 6.303-2.701a.5.5 0 0 1 .697.46V19l-7 3-6-3-6.303 2.701a.501.501 0 0 1-.697-.46V5Zm12.935 2.204-6-3L4 6.319v12.648l5.065-2.17 6 3L20 17.68V5.033l-5.065 2.17v.001Z" /></g><defs><clipPath id="a"><path fill="#fff" d="M0 0h24v24H0z"/></clipPath></defs></svg>
